assets/images/usage.svg

<svg width="24" height="24" viewBox="0 0 24 24" fill="none" xmlns="http://www.w3.org/2000/svg">
<g id="Icon">
<path id="Vector" d="M14.8777 15.3281L12.7027 21.3094C12.6494 21.4529 12.5535 21.5767 12.4278 21.6641C12.3021 21.7515 12.1527 21.7984 11.9996 21.7984C11.8465 21.7984 11.697 21.7515 11.5713 21.6641C11.4456 21.5767 11.3497 21.4529 11.2964 21.3094L9.12143 15.3281C9.08345 15.225 9.02354 15.1314 8.94585 15.0537C8.86816 14.976 8.77453 14.9161 8.67143 14.8781L2.69018 12.7031C2.54665 12.6498 2.42286 12.5539 2.33544 12.4282C2.24803 12.3025 2.20117 12.1531 2.20117 12C2.20117 11.8469 2.24803 11.6974 2.33544 11.5718C2.42286 11.4461 2.54665 11.3501 2.69018 11.2969L8.67143 9.12186C8.77453 9.08387 8.86816 9.02397 8.94585 8.94627C9.02354 8.86858 9.08345 8.77496 9.12143 8.67186L11.2964 2.69061C11.3497 2.54708 11.4456 2.42329 11.5713 2.33587C11.697 2.24845 11.8465 2.2016 11.9996 2.2016C12.1527 2.2016 12.3021 2.24845 12.4278 2.33587C12.5535 2.42329 12.6494 2.54708 12.7027 2.69061L14.8777 8.67186C14.9157 8.77496 14.9756 8.86858 15.0533 8.94627C15.131 9.02397 15.2246 9.08387 15.3277 9.12186L21.3089 11.2969C21.4525 11.3501 21.5763 11.4461 21.6637 11.5718C21.7511 11.6974 21.7979 11.8469 21.7979 12C21.7979 12.1531 21.7511 12.3025 21.6637 12.4282C21.5763 12.5539 21.4525 12.6498 21.3089 12.7031L15.3277 14.8781C15.2246 14.9161 15.131 14.976 15.0533 15.0537C14.9756 15.1314 14.9157 15.225 14.8777 15.3281V15.3281Z" stroke="#F2F4F7" stroke-width="1.5" stroke-linecap="round" stroke-linejoin="round"/>
</g>
</svg>

<svg width="24" height="24" fill="none" xmlns="http://www.w3.org/2000/svg"><path d="M14.878 15.328l-2.175 5.981a.75.75 0 01-1.407 0l-2.175-5.98a.76.76 0 00-.45-.45l-5.98-2.176a.75.75 0 010-1.406l5.98-2.175a.76.76 0 00.45-.45l2.175-5.981a.75.75 0 011.407 0l2.175 5.98a.76.76 0 00.45.45l5.98 2.176a.75.75 0 010 1.406l-5.98 2.175a.76.76 0 00-.45.45v0z" stroke="#F2F4F7" stroke-width="1.5" stroke-linecap="round" stroke-linejoin="round"/></svg>
